X: 6
T: The Rakes Of Kildare
R: jig
M: 6/8
L: 1/8
K: Gdor
|: D |DGG GFG | Add d2 e | fef ded | cAG F2 D |
DGG GFG | Add d2 e | fef dcA | G3 G2 :|
|: g |gdg gdg | gab a2 g | fef ded | cAG FGA |
B2 B cB/A/G | Add d2 e | fed cAF | G3 G2 :|


Tune 84	Setting 12586

